48x48/apps/marknoto.svg

<svg xmlns="http://www.w3.org/2000/svg" width="48" height="48" version="1"><path style="opacity:.2" d="M6 5c-1.108 0-2 .892-2 2v36c0 1.108.892 2 2 2h22l16-16V7c0-1.108-.892-2-2-2z"/><path style="fill:#fecd38" d="M6 4c-1.108 0-2 .892-2 2v36c0 1.108.892 2 2 2h22l16-16V6c0-1.108-.892-2-2-2z"/><g style="opacity:.5"><path d="M28 15v3l4.5 4-4.5 4v3l8-6.867zM20 17v3l-4.5 4 4.5 4v3l-8-6.867zM25.145 15.029l1.932.517-4.14 15.455-1.933-.517z"/></g><path style="fill:#ffe69b" d="M44 28H30a2 2 0 0 0-2 2v14z"/><path style="opacity:.2;fill:#f4f4f7" d="M6 4c-1.108 0-2 .892-2 2v1c0-1.108.892-2 2-2h36c1.108 0 2 .892 2 2V6c0-1.108-.892-2-2-2zM30 28a2 2 0 0 0-2 2v1a2 2 0 0 1 2-2h13l1-1z"/></svg>

<svg xmlns="http://www.w3.org/2000/svg" width="48" height="48" version="1">
 <path style="opacity:0.2" d="M 6,5 C 4.892,5 4,5.892 4,7 V 43 C 4,44.108 4.892,45 6,45 H 28 L 44,29 V 7 C 44,5.892 43.108,5 42,5 Z"/>
 <path style="fill:#fecd38" d="M 6,4 C 4.892,4 4,4.892 4,6 V 42 C 4,43.108 4.892,44 6,44 H 28 L 44,28 V 6 C 44,4.892 43.108,4 42,4 Z"/>
 <g style="opacity:0.5" transform="translate(0,-7)">
  <path d="M 28,22 V 25 L 32.5,29 28,33 V 36 L 36,29.133 Z"/>
  <path d="M 20,24 V 27 L 15.5,31 20,35 V 38 L 12,31.133 Z"/>
  <rect width="2" height="16" x="29.99" y="14.77" transform="rotate(15)"/>
 </g>
 <path style="fill:#ffe69b" d="M 44,28 H 30 C 28.895,28 28,28.895 28,30 V 44 Z"/>
 <path style="opacity:0.2;fill:#f4f4f7" d="M 6,4 C 4.892,4 4,4.892 4,6 V 7 C 4,5.892 4.892,5 6,5 H 42 C 43.108,5 44,5.892 44,7 V 6 C 44,4.892 43.108,4 42,4 Z"/>
 <path style="opacity:0.2;fill:#f4f4f7" d="M 30,28 C 28.895,28 28,28.895 28,30 V 31 C 28,29.895 28.895,29 30,29 H 43 L 44,28 Z"/>
</svg>
